assets/svg/img_eye_opened.svg

<svg width="24" height="24" viewBox="0 0 24 24" fill="none" xmlns="http://www.w3.org/2000/svg">
<path d="M12 7.1C11.0309 7.1 10.0835 7.38738 9.27771 7.9258C8.47191 8.46422 7.84386 9.22949 7.47299 10.1249C7.10212 11.0202 7.00508 12.0054 7.19415 12.9559C7.38322 13.9064 7.8499 14.7795 8.53518 15.4648C9.22045 16.1501 10.0936 16.6168 11.0441 16.8058C11.9946 16.9949 12.9798 16.8979 13.8751 16.527C14.7705 16.1561 15.5358 15.5281 16.0742 14.7223C16.6126 13.9165 16.9 12.9691 16.9 12C16.9 10.7004 16.3838 9.45411 15.4648 8.53518C14.5459 7.61625 13.2996 7.1 12 7.1ZM12 15.1C11.3869 15.1 10.7875 14.9182 10.2777 14.5776C9.76794 14.2369 9.3706 13.7528 9.13597 13.1863C8.90134 12.6199 8.83995 11.9966 8.95957 11.3952C9.07918 10.7939 9.37443 10.2415 9.80797 9.80797C10.2415 9.37443 10.7939 9.07918 11.3952 8.95957C11.9966 8.83995 12.6199 8.90134 13.1863 9.13597C13.7528 9.3706 14.2369 9.76794 14.5776 10.2777C14.9182 10.7875 15.1 11.3869 15.1 12C15.1 12.8222 14.7734 13.6107 14.192 14.192C13.6107 14.7734 12.8222 15.1 12 15.1ZM22.69 10.72C22.2982 9.9136 21.7857 9.17172 21.17 8.52C20.0105 7.2881 18.6598 6.25144 17.17 5.45C15.5916 4.55009 13.8162 4.05213 12 4C9.23737 4.14464 6.60028 5.19948 4.5 7C3.57943 7.72473 2.75599 8.56497 2.05 9.5C1.76528 9.89293 1.51755 10.3114 1.31 10.75C1.12114 11.1407 1.01557 11.5663 1 12C1.01138 12.4438 1.11706 12.8801 1.31 13.28C1.70178 14.0864 2.21435 14.8283 2.83 15.48C3.98946 16.7119 5.34016 17.7486 6.83 18.55C8.40838 19.4499 10.1838 19.9479 12 20C14.7626 19.8554 17.3997 18.8005 19.5 17C20.4363 16.2878 21.2766 15.4576 22 14.53C22.2847 14.1371 22.5324 13.7186 22.74 13.28C22.9157 12.8764 23.0043 12.4402 23 12C22.9886 11.5562 22.8829 11.1199 22.69 10.72ZM20.86 12.47C20.5536 13.0778 20.1594 13.6371 19.69 14.13C18.6977 15.1918 17.5434 16.0896 16.27 16.79C14.9675 17.5376 13.5011 17.9532 12 18C9.6965 17.8609 7.50166 16.9724 5.75 15.47C4.96957 14.8544 4.27063 14.142 3.67 13.35C3.46562 13.0743 3.28814 12.7796 3.14 12.47C3.06869 12.3218 3.02143 12.1631 3 12C3.02143 11.8369 3.06869 11.6782 3.14 11.53C3.44636 10.9222 3.8406 10.3629 4.31 9.87C5.30226 8.80817 6.45659 7.91036 7.73 7.21C9.03247 6.46236 10.4989 6.0468 12 6C14.3035 6.13914 16.4983 7.02761 18.25 8.53C19.0304 9.1456 19.7294 9.85799 20.33 10.65C20.5344 10.9257 20.7119 11.2204 20.86 11.53C20.9313 11.6782 20.9786 11.8369 21 12C20.9786 12.1631 20.9313 12.3218 20.86 12.47Z" fill="#222222"/>
</svg>

<svg xmlns="http://www.w3.org/2000/svg" width="24" height="24" fill="none" viewBox="0 0 24 24"><path fill="#222" d="M12 7.1a4.9 4.9 0 1 0 0 9.8 4.9 4.9 0 0 0 0-9.8Zm0 8a3.1 3.1 0 1 1 0-6.2 3.1 3.1 0 0 1 0 6.2Zm10.69-4.38a8.81 8.81 0 0 0-1.52-2.2 15.721 15.721 0 0 0-4-3.07A11.08 11.08 0 0 0 12 4a12.53 12.53 0 0 0-7.5 3 13.65 13.65 0 0 0-2.45 2.5 7.86 7.86 0 0 0-.74 1.25A3.13 3.13 0 0 0 1 12c.011.444.117.88.31 1.28a8.81 8.81 0 0 0 1.52 2.2 15.72 15.72 0 0 0 4 3.07A11.08 11.08 0 0 0 12 20a12.53 12.53 0 0 0 7.5-3 13.65 13.65 0 0 0 2.5-2.47c.285-.393.532-.811.74-1.25A3.13 3.13 0 0 0 23 12a3.131 3.131 0 0 0-.31-1.28Zm-1.83 1.75a6.931 6.931 0 0 1-1.17 1.66 13.753 13.753 0 0 1-3.42 2.66A9.15 9.15 0 0 1 12 18a10.58 10.58 0 0 1-6.25-2.53 11.72 11.72 0 0 1-2.08-2.12 5.37 5.37 0 0 1-.53-.88A1.55 1.55 0 0 1 3 12a1.55 1.55 0 0 1 .14-.47 6.93 6.93 0 0 1 1.17-1.66 13.75 13.75 0 0 1 3.42-2.66A9.15 9.15 0 0 1 12 6a10.58 10.58 0 0 1 6.25 2.53 11.72 11.72 0 0 1 2.08 2.12c.204.276.382.57.53.88.071.148.119.307.14.47a1.55 1.55 0 0 1-.14.47Z"/></svg>
